X: 68
T: Missa De virginibus / Kyrie
N: Derived from Rue1015a-Missa_De_virginibus-Kyrie.krn
C: Pierre de la Rue
%%abc-version 2.0
%%abcx-abcm2ps-target-version 5.9.1 (29 Sep 2008)
%%abc-creator hum2abc beta
%%abcx-conversion-date 2019/02/17 08:01:12
%%abc-edited-by Jesse Rodin
%%abc-edited-by Chris Gage 06-24-2013
%%abcx-initial-encoding-date 2013/08/05/
%%humdrum-veritas 3852537602
%%humdrum-veritas-data 2115951101
%%linebreak <none>
%%barnumbers 0
L: 1/4
M: 4/2
Q: 1/2=120
%%staves [1 2 3 4]
V: 1 clef=treble
V: 2 clef=treble-8
V: 3 clef=treble-8
V: 4 clef=bass
K: C
[V:1] z8 | 
[V:2] f6d2 | 
[V:3] z8 | 
[V:4] F,8 | 
[V:1] z8 | 
[V:2] e2c2d3e | 
[V:3] z8 | 
[V:4] G,2E,2F,2F,2- | 
[V:1] c6A2 | 
[V:2] f2g3ff2- | 
[V:3] c8 | 
[V:4] F,E,C,2F,2A,2 | 
[V:1] _B2G2A3B | 
[V:2] f2e2f4 | 
[V:3] d2B2c2c2- | 
[V:4] G,4F,4 | 
[V:1] c2d2dcc2- | 
[V:2] z8 | 
[V:3] c2G2c2e2 | 
[V:4] z8 | 
[V:1] c2B2c4 | 
[V:2] z4z2f2- | 
[V:3] d4c4 | 
[V:4] z4F,4- | 
[V:1] z8 | 
[V:2] f2d2e2c2 | 
[V:3] z8 | 
[V:4] F,4G,2A,2 | 
[V:1] z4z2c2- | 
[V:2] d3cA2F2 | 
[V:3] z4c4- | 
[V:4] D,2F,G,A,_B,A,2- | 
[V:1] c2A2_B2G2 | 
[V:2] A3_BG4 | 
[V:3] c4d2e2 | 
[V:4] A,G,F,4E,2 | 
[V:1] A3GE2C2 | 
[V:2] F4z4 | 
[V:3] A2cdefe2- | 
[V:4] F,4z4 | 
[V:1] E3FD4 | 
[V:2] z8 | 
[V:3] edc4B2 | 
[V:4] z8 | 
[V:1] C4z4 | 
[V:2] z2f4e2 | 
[V:3] c4z4 | 
[V:4] F,4G,4 | 
[V:1] z4z2c2- | 
[V:2] f2d2efge | 
[V:3] z4c4 | 
[V:4] F,3E,C,4 | 
[V:1] c2B2c2A2 | 
[V:2] a2g4f2 | 
[V:3] d2d4c2 | 
[V:4] F,2G,2A,4 | 
[V:1] BcdBe2d2- | 
[V:2] g4z4 | 
[V:3] d2B2c2d2 | 
[V:4] G,4z2F,2 | 
[V:1] d2c2dcBA | 
[V:2] z4z2f2- | 
[V:3] e3dd2c2- | 
[V:4] G,2A,2_B,A,G,F, | 
[V:1] B4A4 | 
[V:2] f2e2f2d2 | 
[V:3] c2B2c2A2 | 
[V:4] G,4F,4 | 
[V:1] z2c4B2 | 
[V:2] efgea2g2- | 
[V:3] B2c2d4 | 
[V:4] z2C,2F,2G,2 | 
[V:1] c2A2BcdB | 
[V:2] g2f2g2d2 | 
[V:3] z2c2d2B2 | 
[V:4] A,4G,4 | 
[V:1] e2d4c2 | 
[V:2] g2f2_bagf | 
[V:3] c2d2e3f | 
[V:4] C,2F,2G,2A,2 | 
[V:1] dc_BAB4 | 
[V:2] g2f3ee2 | 
[V:3] d2c4_B2 | 
[V:4] _B,A,G,F,G,4 | 
[V:1] A8 ||  
[V:2] f8 ||  
[V:3] c8 ||  
[V:4] F,8 ||  
[V:1]  [K:C] [K:clef=treble][M:2/1]z8 | 
[V:2]  [K:C] [K:clef=treble-8][M:2/1]c4f4 | 
[V:3]  [K:C] [K:clef=treble-8][M:2/1]z8 | 
[V:4]  [K:C] [K:clef=bass][M:2/1]z8 | 
[V:1] z8 | 
[V:2] e4a4 | 
[V:3] z8 | 
[V:4] C,4F,4 | 
[V:1] G4c4 | 
[V:2] g2g4f2 | 
[V:3] z8 | 
[V:4] E,4A,4 | 
[V:1] B4e4 | 
[V:2] g8- | 
[V:3] G4c4 | 
[V:4] G,4C,3D, | 
[V:1] d2d4c2 | 
[V:2] g8 | 
[V:3] B4e4 | 
[V:4] E,F,G,4A,2 | 
[V:1] d2cBA4 | 
[V:2] z4f4 | 
[V:3] d8 | 
[V:4] _B,3A,F,4 | 
[V:1] G4z4 | 
[V:2] e4a4 | 
[V:3] z8 | 
[V:4] C,4F,4 | 
[V:1] G4c4 | 
[V:2] g2g4f2 | 
[V:3] z8 | 
[V:4] E,4A,4 | 
[V:1] B4e4 | 
[V:2] g8- | 
[V:3] G4c4 | 
[V:4] G,4C,3D, | 
[V:1] e2d4c2 | 
[V:2] g8 | 
[V:3] B4e4 | 
[V:4] E,F,G,4A,2 | 
[V:1] d3cA2B2- | 
[V:2] z8 | 
[V:3] d2d4B2 | 
[V:4] _B,3A,F,2G,2- | 
[V:1] B2G2A2B2- | 
[V:2] z8 | 
[V:3] e3dc2B2 | 
[V:4] G,2E,2F,2G,2- | 
[V:1] B2G2A2B2 | 
[V:2] z4z2g2- | 
[V:3] e4d4 | 
[V:4] G,2E,2F,2G,2 | 
[V:1] E2c2d2e2- | 
[V:2] g2e2f2g2- | 
[V:3] c4z4 | 
[V:4] C,4z4 | 
[V:1] e2c2d2e2 | 
[V:2] g2e2f2g2 | 
[V:3] z8 | 
[V:4] z4z2C2- | 
[V:1] A2c2B2A2 | 
[V:2] c2f2g2a2- | 
[V:3] z2c2d2e2- | 
[V:4] C2A,2B,2C2 | 
[V:1] z2c2B2A2 | 
[V:2] a2f2g2a2- | 
[V:3] e2c2d2e2- | 
[V:4] C2A,2B,2C2- | 
[V:1] c3AB4 | 
[V:2] a2gfe4 | 
[V:3] edc4B2 | 
[V:4] CF,A,2G,4 | 
[V:1] z2A3BcA | 
[V:2] z2f3gaf | 
[V:3] c8 | 
[V:4] F,8 | 
[V:1] B2A2c3A | 
[V:2] g2a3gf2- | 
[V:3] z4z2c2 | 
[V:4] z2C3F,A,2 | 
[V:1] B4A2c2 | 
[V:2] f2e2f2a2 | 
[V:3] d2B2c4 | 
[V:4] G,4F,4 | 
[V:1] d2e4c2 | 
[V:2] _b2g2a3_b | 
[V:3] G2c3def | 
[V:4] z4z2A,2 | 
[V:1] d2e2A4 | 
[V:2] g4f2a2 | 
[V:3] d2c4f2 | 
[V:4] B,2C2F,4 | 
[V:1] z2c2d2e2- | 
[V:2] g2f4e2 | 
[V:3] e2c2z2c2- | 
[V:4] z2A,2B,2C2- | 
[V:1] e2c2d2e2 | 
[V:2] a3_bg4 | 
[V:3] cdefd2c2- | 
[V:4] C2A,2B,2C2 | 
[V:1] f6ed | 
[V:2] f6gf | 
[V:3] cBA2d4 | 
[V:4] F,3E,D,4 | 
[V:1] e8 | 
[V:2] g8 | 
[V:3] G6AB | 
[V:4] C,8- | 
[V:1] e8- | 
[V:2] g8- | 
[V:3] c8 | 
[V:4] C,8- | 
[V:1] e8 ||  
[V:2] g8 ||  
[V:3] c8 ||  
[V:4] C,8 ||  
[V:1]  [K:C] [K:clef=treble][M:4/2]z4A3B | 
[V:2]  [K:C] [K:clef=treble-8][M:4/2]f8 | 
[V:3]  [K:C] [K:clef=treble-8][M:4/2]z8 | 
[V:4]  [K:C] [K:clef=bass][M:4/2]z8 | 
[V:1] c2d3cAB | 
[V:2] e2d2f4 | 
[V:3] z8 | 
[V:4] z8 | 
[V:1] c2d3ef2 | 
[V:2] e2d2f4 | 
[V:3] z8 | 
[V:4] z8 | 
[V:1] e2d3cc2- | 
[V:2] g2fefedc | 
[V:3] z8 | 
[V:4] z8 | 
[V:1] c2B2c4 | 
[V:2] d4c4- | 
[V:3] z8 | 
[V:4] z4F,4- | 
[V:1] z2A2G2F2 | 
[V:2] c4z2f2- | 
[V:3] A3Bc2d2- | 
[V:4] F,4E,2D,2 | 
[V:1] A4G2F2 | 
[V:2] f2d2e2f2- | 
[V:3] dcABc2d2- | 
[V:4] F,4E,2D,2 | 
[V:1] A3Bc3B | 
[V:2] fgafg4 | 
[V:3] defde4 | 
[V:4] F,4C,3D, | 
[V:1] G2A4GF | 
[V:2] g2f4ed | 
[V:3] d2c4B2 | 
[V:4] E,2F,2D,4 | 
[V:1] E2F2G4 | 
[V:2] g2f4e2 | 
[V:3] c2A2G4 | 
[V:4] C,8 | 
[V:1] z2A3Bc2 | 
[V:2] f8 | 
[V:3] F8 | 
[V:4] F,8 | 
[V:1] B2A4d2 | 
[V:2] z2d3ef2 | 
[V:3] z8 | 
[V:4] z8 | 
[V:1] c2f3eed | 
[V:2] e2d2a4- | 
[V:3] z4z2A2- | 
[V:4] z2D,3E,F,G, | 
[V:1] c4z4 | 
[V:2] a4z2a2- | 
[V:3] ABc2B2A2- | 
[V:4] A,2F,2G,2F,2 | 
[V:1] z8 | 
[V:2] a2a4gf | 
[V:3] A2f3eed | 
[V:4] D,4A,4- | 
[V:1] z2A3Bc2 | 
[V:2] e2f2e4 | 
[V:3] c2d4c2 | 
[V:4] A,2D,2A,4 | 
[V:1] B2A4f2- | 
[V:2] z2d2f3g | 
[V:3] d8 | 
[V:4] z4z2D,2- | 
[V:1] f2edc3B | 
[V:2] a4a3g | 
[V:3] z2A3Bc2 | 
[V:4] D,E,F,G,A,2F,2 | 
[V:1] G2A4d2- | 
[V:2] e2f4a2- | 
[V:3] B2A4f2- | 
[V:4] G,2F,2D,4 | 
[V:1] dcc2A2B2- | 
[V:2] a2gfefg2- | 
[V:3] feedc2d2 | 
[V:4] A,6G,2 | 
[V:1] B2A4G2 | 
[V:2] g2f4e2 | 
[V:3] A4B4 | 
[V:4] A,2F,2G,4 | 
[V:1] A3GE2F2 | 
[V:2] f3ec2d2 | 
[V:3] A8 | 
[V:4] F,3G,A,2D,2 | 
[V:1] C2F4ED | 
[V:2] A4d4 | 
[V:3] z4z2B2 | 
[V:4] F,E,D,C,D,4 | 
[V:1] E8 | 
[V:2] G2g3fed | 
[V:3] c3BG2A2 | 
[V:4] C,8 | 
[V:1] z8 | 
[V:2] c3de2f2- | 
[V:3] E2A4GF | 
[V:4] z4C,4- | 
[V:1] z2G2A3G | 
[V:2] fee2f3e | 
[V:3] G4F4 | 
[V:4] C,4F,3G, | 
[V:1] E2F2C2F2- | 
[V:2] c2d2A4 | 
[V:3] z8 | 
[V:4] A,2D,2F,E,D,C, | 
[V:1] F2EDE2G2- | 
[V:2] d4z2G2 | 
[V:3] z2B2c3B | 
[V:4] D,4C,4 | 
[V:1] GFEDC3D | 
[V:2] cdefg2c2- | 
[V:3] G2A2E2A2- | 
[V:4] C,3D,E,2F,2 | 
[V:1] E2F4E2 | 
[V:2] c2B2c4 | 
[V:3] A2GFG4 | 
[V:4] C,2D,2C,4 | 
[V:1] F8 |]  
[V:2] c8 |]  
[V:3] F8 |]  
[V:4] F,8 |]  



